!!!SOCIAL_FUNCTION:	songs of the sun dance
!!!PDT:	1918

Specific Region: Dakotas, Minnesota, Montana, Nebraska
!!!REG: Dakotas and Montana
!!!LING_GROUP: Siouan
!!!LANG: Tone
!!!OTL@ENG: We Are Coming
!!!ONM: No. 5
**kern
*Imale
*clefF4
*k[f#c#]
*M2/4
*MM126
8f#
8f#
4f#
=2
4f#
4e
=3
4d
4B
=4
8d
8d
4d
=5
4f#
4e
=6
4d
4B
=7
8B
8d
4B
=8
4B
8B
8d
=9
4B
4B
=10
4B
8B
8B
=11
8d
8d
4d
=12
4f#
4e
=13
4d
4B
=14
8B
8F#
4F#
=15||
*M3/4
4B
4F#
4E
=16
4D
8D
8BB
4BB
=17||
*M2/4
8D
8D
4D
=18||
*M3/4
4F#
4E
4D
=19||
*M2/4
4.BB
8BB
=20||
*M3/4
[2BB
8BB]
8BB
=21||
*M2/4
4BB
[4BB
=22
2BB]
=23
*MM144
4.B
8d
=24
4.d
8d
=25
4.f#
8e
=26||
*M3/4
16e
[8.d
4d]
4B
=27
8F#
8F#
(4.F#
8E)
=28
4F#
4.F#
8F#
=29
4B
8F#
8F#
4E
=30||
*M2/4
4.D
8BB
=31
*MM126
8D
8D
4D
=32||
*M3/4
4F#
4E
4D
=33||
*M2/4
4.BB
8BB
=34
2BB
==
*-
!!!CNT: Native American -- Sioux
!!!MRD: 1911/07//-1914///
!!!OCL: Frances Densmore
!!!YOR1: Teton Sioux Music, Bulletin 61,
!!!YOR2: Bureau of American Ethnology, Smithsonian Institution
!!!PPR: Government Printing Office
!!!PPP: Washington, D.C.
!!!PDT: 1918///
!!!ENC: Craig Stuart Sapp
!!!END: 2002/03/25/
!!!EEV: 2002/03/31/
!!!AGN: Ceremonial Song/Song of the Sun Dance
!!!MPN@@SIO: Shiya'ka
!!!MPN@ENG: Teal Duck
!!!TXO: Teton Sioux
!!!MLC: Standing Rock Reservation, South Dakota, United States of America
!!!ARL: 45.9/-100.7#
!!!catalog: Catalogue No. 456
!!!PPG: 105
!!!EFL: 5/245
!!!VTS: 3817690785
